resources/icons/20px/exchange.svg

<svg xmlns="http://www.w3.org/2000/svg" viewBox="0 0 20 20">
  <path d="M2.5 8a2.5 2.5 0 0 0 0 5 2.5 2.5 0 0 0 0-5m10.35 3.15a.495.495 0 1 0-.7.7L13.3 13H5.5c-.28 0-.5.22-.5.5s.22.5.5.5h7.79l-1.15 1.15c-.08.09-.14.21-.14.35a.495.495 0 0 0 .85.35l2-2c.09-.09.15-.21.15-.35s-.06-.26-.15-.35zM17.5 8a2.5 2.5 0 0 0 0 5 2.5 2.5 0 0 0 0-5M7.15 9.85a.495.495 0 1 0 .7-.7L6.71 8h7.79c.28 0 .5-.22.5-.5s-.22-.5-.5-.5H6.71l1.15-1.15c.08-.09.14-.21.14-.35a.495.495 0 0 0-.85-.35l-2 2c-.09.09-.15.21-.15.35s.06.26.15.35z"/>
</svg>

<?xml version="1.0" encoding="utf-8"?>
<!-- Generator: Adobe Illustrator 17.1.0, SVG Export Plug-In . SVG Version: 6.00 Build 0)  -->
<!DOCTYPE svg PUBLIC "-//W3C//DTD SVG 1.1//EN" "http://www.w3.org/Graphics/SVG/1.1/DTD/svg11.dtd">
<svg version="1.1" id="Layer_1" xmlns="http://www.w3.org/2000/svg" xmlns:xlink="http://www.w3.org/1999/xlink" x="0px" y="0px"
	 viewBox="0 0 20 20" enable-background="new 0 0 20 20" xml:space="preserve">
<g id="exchange_2_">
	<g>
		<path d="M2.5,8C1.12,8,0,9.12,0,10.5S1.12,13,2.5,13S5,11.88,5,10.5S3.88,8,2.5,8z M12.85,11.15C12.76,11.06,12.63,11,12.5,11
			c-0.28,0-0.5,0.22-0.5,0.5c0,0.14,0.06,0.26,0.15,0.35L13.3,13H5.5C5.22,13,5,13.22,5,13.5S5.22,14,5.5,14h7.79l-1.15,1.15
			C12.06,15.24,12,15.36,12,15.5c0,0.28,0.22,0.5,0.5,0.5c0.14,0,0.26-0.06,0.35-0.15l2-2C14.94,13.76,15,13.64,15,13.5
			s-0.06-0.26-0.15-0.35L12.85,11.15z M17.5,8C16.12,8,15,9.12,15,10.5s1.12,2.5,2.5,2.5s2.5-1.12,2.5-2.5S18.88,8,17.5,8z
			 M7.15,9.85C7.24,9.94,7.36,10,7.5,10C7.78,10,8,9.78,8,9.5c0-0.14-0.06-0.26-0.15-0.35L6.71,8h7.79C14.78,8,15,7.78,15,7.5
			S14.78,7,14.5,7H6.71l1.15-1.15C7.94,5.76,8,5.64,8,5.5C8,5.22,7.78,5,7.5,5C7.36,5,7.24,5.06,7.15,5.15l-2,2
			C5.06,7.24,5,7.36,5,7.5s0.06,0.26,0.15,0.35L7.15,9.85z"/>
	</g>
</g>
</svg>
